X:589
T: O wie reent et! (287), S. 600f
N: T0477
O: Luxemburg
S: Singendes Volk, Esch-Alzette, 1937 posth.]
N: Lullingen, mitgeteilt: hhh Heinrich Godefroid (Lehrer)
R: ???]
M: 2/4
L: 1/8
K: D
 | d3c | cBB2 | c3B | BAA
D | DFFA | A3
F | AAGG | F2z2

@@@ Tune index: 8643
